!!!COM: Corelli, Arcangelo
!!!OTL: 
!!!ONM: Opus 6, No. 2
!!!OMV: 2
!!!CDT: 1653/2/17/-1713/1/8/
!!!OCY: Italia
**kern	**kern	**kern	**kern	**kern	**kern	**kern
*clefC	*clefG	*clefG	*clefG	*clefC	*clefG	*clefG
*k[b-]	*k[b-]	*k[b-]	*k[b-]	*k[b-]	*k[b-]	*k[b-]
*F:	*F:	*F:	*F:	*F:	*F:	*F:
*M4/4	*M4/4	*M4/4	*M4/4	*M4/4	*M4/4	*M4/4
=1	=1	=1	=1	=1	=1	=1
1r	1r	1r	1r	1r	1r	2cc
.	.	.	.	.	.	2dd
=2	=2	=2	=2	=2	=2	=2
1r	1r	1r	1r	1r	2r	8cc
.	.	.	.	.	.	8b-
.	.	.	.	.	.	8a
.	.	.	.	.	.	8g
.	.	.	.	.	2f	8f
.	.	.	.	.	.	8ff
.	.	.	.	.	.	8ee
.	.	.	.	.	.	8dd
=3	=3	=3	=3	=3	=3	=3
1r	1r	1r	1r	1r	2a	4cc
.	.	.	.	.	.	4a
.	.	.	.	.	8g	2b
.	.	.	.	.	8f	.
.	.	.	.	.	8e	.
.	.	.	.	.	8d	.
=4	=4	=4	=4	=4	=4	=4
1r	1r	1r	1r	1r	4c	4.cc
.	.	.	.	.	4.cc	.
.	.	.	.	.	.	8cc
.	.	.	.	.	.	4.dd
.	.	.	.	.	8f	.
.	.	.	.	.	[4b-	.
.	.	.	.	.	.	8gg
=5	=5	=5	=5	=5	=5	=5
1r	2r	1r	1r	2r	4b-]	8ee
.	.	.	.	.	.	8cc
.	.	.	.	.	4a	2ff
.	2c	.	.	2c	4g	.
.	.	.	.	.	[4cc	4ee
=6	=6	=6	=6	=6	=6	=6
1r	2d	1r	1r	2d	4cc]	2ff
.	.	.	.	.	4b	.
.	8c	.	.	8c	4cc	8ee
.	8B-	.	.	8B-	.	8dd
.	8A	.	.	8A	4r	8cc
.	8G	.	.	8G	.	8b-
=7	=7	=7	=7	=7	=7	=7
2F	4F	8cc	4a	2F	8cc	4a
.	.	8b-	.	.	8b-	.
.	8cc	8a	4f	.	8a	4f
.	8b-	8g	.	.	8g	.
2A	4a	4.f	8ff	2A	4.f	8ff
.	.	.	8ee	.	.	8ee
.	4f	.	8dd	.	.	8dd
.	.	8cc	8cc	.	8cc	8cc
=8	=8	=8	=8	=8	=8	=8
8G	4r	4.dd	4.b	8G	4.dd	4.b
8F	.	.	.	8F	.	.
8E	8g	.	.	8E	.	.
8D	8f	8dd	8b	8D	8dd	8b
4C	4e	8ee	8cc	4C	8ee	8cc
.	.	8ff	8dd	.	8ff	8dd
[4c	4c	8gg	8ee	[4c	8gg	8ee
.	.	8ee	8cc	.	8ee	8cc
=9	=9	=9	=9	=9	=9	=9
4c]	4r	4ff	2dd	4c]	4ff	2dd
2B-	4d	4gg	.	2B-	4gg	.
.	4g	4cc	4ee	.	4cc	4ee
4A	8r	[4ff	4cc	4A	[4ff	4cc
.	8c	.	.	.	.	.
=10	=10	=10	=10	=10	=10	=10
4G	8d	4ff]	2b-	4G	4ff]	2b-
.	8B-	.	.	.	.	.
4C	4c	4ee	.	4C	4ee	.
4F	4c	4ff	4a	4F	8f	8a
.	.	.	.	.	8g	8b-
4r	4r	4r	4r	4r	8a	8cc
.	.	.	.	.	8b-	8dd
=11	=11	=11	=11	=11	=11	=11
2r	2r	2r	2r	2r	8cc	8ee
.	.	.	.	.	8dd	8ff
.	.	.	.	.	8ee	8gg
.	.	.	.	.	8cc	8ee
8F	8A	4cc	2aa	8F	4ff	2aa
8G	8B	.	.	8G	.	.
8A	8c	[4ff	.	8A	[4ff	.
8B	8d	.	.	8B	.	.
=12	=12	=12	=12	=12	=12	=12
8c	8e	4ff]	2gg	8c	4ff]	2gg
8d	8f	.	.	8d	.	.
8e	8g	2ee	.	8e	2ee	.
8c	8e	.	.	8c	.	.
8d	8f	.	2ff	8d	.	2ff
8c	8d	.	.	8c	.	.
8B	4g	[4dd	.	8B	[4dd	.
8G	.	.	.	8G	.	.
=13	=13	=13	=13	=13	=13	=13
8c	4g	4dd]	8ee	8c	4dd]	8ee
8d	.	.	8ff	8d	.	8ff
8e	8r	8cc	4.gg	8e	8cc	4.gg
8E	8g	8b-	.	8E	8b-	.
8F	4c	4.a	.	8F	4.a	.
8G	.	.	8cc	8G	.	8cc
8A	8r	.	[4ff	8A	.	[4ff
8F	8a	8dd	.	8F	8dd	.
=14	=14	=14	=14	=14	=14	=14
8G	4d	8b	4ff]	8G	8b	4ff]
8G	.	8g	.	8G	8g	.
8A	8r	2cc	4ee	8A	2cc	4ee
8E	8g	.	.	8E	.	.
8F	8a	.	2dd	8F	.	2dd
8D	8f	.	.	8D	.	.
8G	4g	4b	.	8G	4b	.
8GG	.	.	.	8GG	.	.
=15	=15	=15	=15	=15	=15	=15
4C	4e	4cc	4cc	4C	4cc	4cc
4c	2.r	2ccc	4ee	4c	2ccc	4ee
4d	.	.	4ff	4d	.	4ff
4e	.	[4bb-	4gg	4e	[4bb-	4gg
=16	=16	=16	=16	=16	=16	=16
2f	2r	4bb-]	4cc	4f	4bb-]	4cc
.	.	4aa	2ff	4r	4aa	2ff
2r	2cc	4gg	.	2c	4gg	.
.	.	[4cc	4ee	.	[4cc	4ee
=17	=17	=17	=17	=17	=17	=17
2r	2dd	4cc]	2ff	2d	4cc]	2ff
.	.	4b	.	.	4b	.
2C	8cc	4cc	8ee	2C	4cc	8ee
.	8b-	.	8dd	.	.	8dd
.	8a	4r	8cc	.	4r	8cc
.	8g	.	8b-	.	.	8b-
=18	=18	=18	=18	=18	=18	=18
2D	4f	4ff	8a	2D	4ff	8a
.	.	.	8aa	.	.	8aa
.	8r	4.bb-	8gg	.	4.bb-	8gg
.	8d	.	8ff	.	.	8ff
8C	8e	.	4.ee	8C	.	4.ee
8BB-	8d	8ee	.	8BB-	8ee	.
8C	8e	[4aa	.	8C	[4aa	.
8AA	8c	.	8aa	8AA	.	8aa
=19	=19	=19	=19	=19	=19	=19
2BB-	4f	4aa]	8dd	2BB-	4aa]	8dd
.	.	.	8ff	.	.	8ff
.	4b-	4gg	8ee	.	4gg	8ee
.	.	.	8dd	.	.	8dd
4AA	4e	4aa	4cc#	4AA	4aa	4cc#
4r	4r	4r	4r	4A	4cc#	[4aa
=20	=20	=20	=20	=20	=20	=20
1r	1r	1r	1r	4B	4dd	4aa]
.	.	.	.	4c#	4ee	2gg
.	.	.	.	8d	4a	.
.	.	.	.	8e	.	.
.	.	.	.	8f	[4dd	4ff
.	.	.	.	8F	.	.
=21	=21	=21	=21	=21	=21	=21
2r	2r	2r	2r	8G	4dd]	2ee
.	.	.	.	8E	.	.
.	.	.	.	8A	4cc#	.
.	.	.	.	8AA	.	.
8D	8f	4aa	2ff	8D	4dd	2ff
8E	8g	.	.	8E	.	.
8F	8a	[4ddd	.	8F	[4ddd	.
8G	8b-	.	.	8G	.	.
=22	=22	=22	=22	=22	=22	=22
8A	8cc	4ddd]	2ee	8A	4ddd]	2ee
8B-	8dd	.	.	8B-	.	.
8c	8ee	2ccc	.	8c	2ccc	.
8A	8cc	.	.	8A	.	.
8BB-	8d	.	2dd	8BB-	.	2dd
8C	8e	.	.	8C	.	.
8D	8f	[4bb-	.	8D	[4bb-	.
8E	8g	.	.	8E	.	.
=23	=23	=23	=23	=23	=23	=23
8F	8a	4bb-]	2cc	8F	4bb-]	2cc
8G	8b-	.	.	8G	.	.
8A	8cc	2aa	.	8A	2aa	.
8F	8a	.	.	8F	.	.
8G	8b-	.	2b-	8G	.	2b-
8F	8g	.	.	8F	.	.
8E	4cc	[4gg	.	8E	[4gg	.
8C	.	.	.	8C	.	.
=24	=24	=24	=24	=24	=24	=24
8F	4.cc	4gg]	4a	8F	4gg]	4a
8G	.	.	.	8G	.	.
8A	.	8ff	2aa	8A	8ff	2aa
8F	8a	8ee	.	8F	8ee	.
8B-	4.b-	4dd	.	8B-	4dd	.
8c	.	.	.	8c	.	.
8d	.	[4bb-	8gg	8d	[4bb-	8gg
8B-	8dd	.	8ff	8B-	.	8ff
=25	=25	=25	=25	=25	=25	=25
8c	4g	4bb-]	8ee	8c	4bb-]	8ee
8c	.	.	8cc	8c	.	8cc
8d	8r	4aa	2ff	8d	4aa	2ff
8A	8cc	.	.	8A	.	.
8B-	8dd	2gg	.	8B-	2gg	.
8G	8b-	.	.	8G	.	.
8c	4cc	.	4ee	8c	.	4ee
8C	.	.	.	8C	.	.
=26	=26	=26	=26	=26	=26	=26
4F	4a	4ff	4ff	4F	4ff	4ff
2BB-	8r	4f	4dd	2BB-	4f	4dd
.	8f	.	.	.	.	.
.	4c	4g	4e	.	4g	4e
4AA	8r	8r	8r	4AA	8r	8r
.	8f	8a	8cc	.	8a	8cc
=27	=27	=27	=27	=27	=27	=27
4BB-	8f	8d	8dd	4BB-	8d	8dd
.	8g	8e	8cc	.	8e	8cc
4FF	8a	2f	8b-	4FF	2f	8b-
.	8b-	.	8a	.	.	8a
2C	4cc	.	2g	2C	.	2g
.	4c	4e	.	.	4e	.
=28	=28	=28	=28	=28	=28	=28
2FF	2A	2f	2f	2FF	2f	2f
2r	2r	2r	2r	2r	4r	2ff
.	.	.	.	.	[4ff	.
=29	=29	=29	=29	=29	=29	=29
1r	1r	1r	1r	1r	4ff]	4.gg
.	.	.	.	.	4ee	.
.	.	.	.	.	.	16ff
.	.	.	.	.	.	16gg
.	.	.	.	.	8ff	8aa
.	.	.	.	.	8ee	8gg
.	.	.	.	.	8ff	8aa
.	.	.	.	.	8dd	8ff
=30	=30	=30	=30	=30	=30	=30
1r	1r	1r	1r	1r	8gg	8bb-
.	.	.	.	.	8ff	8aa
.	.	.	.	.	8gg	8bb-
.	.	.	.	.	8ee	8gg
.	.	.	.	.	8ff	2aa
.	.	.	.	.	8cc	.
.	.	.	.	.	[4ff	.
=31	=31	=31	=31	=31	=31	=31
2r	2.r	2r	2r	2r	4ff]	2gg
.	.	.	.	.	4ee	.
2F	.	8ff	8aa	2F	8ff	8aa
.	.	8ee	8gg	.	8ee	8gg
.	[4f	8dd	8ff	.	8dd	8ff
.	.	8cc	8ee	.	8cc	8ee
=32	=32	=32	=32	=32	=32	=32
4.G	8f]	4.b	4dd	4.G	4.b	4dd
.	8f	.	.	.	.	.
.	8e	.	2gg	.	.	2gg
8G	8d	8b	.	8G	8b	.
8A	4.c	4cc	.	8A	4cc	.
8G	.	.	.	8G	.	.
8A	.	4aa	[4ff	8A	4aa	[4ff
8F	8c	.	.	8F	.	.
=33	=33	=33	=33	=33	=33	=33
8B	4d	2gg	4ff]	8B	2gg	4ff]
8G	.	.	.	8G	.	.
2c	4e	.	4ee	2c	.	4ee
.	4f	2ff	2dd	.	2ff	2dd
4B	4g	.	.	4B	.	.
=34	=34	=34	=34	=34	=34	=34
4c	4g	4ee	4cc	4r	4ee	4cc
2.r	4c	2r	4ccc	4c	2r	4ccc
.	4d	.	4ff	4d	.	4ff
.	4e	4gg	[4bb-	4e	4gg	[4bb-
=35	=35	=35	=35	=35	=35	=35
2r	8f	4cc	4bb-]	2f	4cc	4bb-]
.	8g	.	.	.	.	.
.	8a	2ff	4aa	.	2ff	4aa
.	8b-	.	.	.	.	.
2C	8cc	.	2gg	2C	.	2gg
.	8dd	.	.	.	.	.
.	8cc	[4ee	.	.	[4ee	.
.	8b-	.	.	.	.	.
=36	=36	=36	=36	=36	=36	=36
4FF	4a	4ee]	4aa	4FF	4ee]	4aa
2BB-	8r	4dd	4ff	2BB-	4dd	4ff
.	8d	.	.	.	.	.
.	4g	2cc	8ee	.	2cc	8ee
.	.	.	8cc	.	.	8cc
4AA	8r	.	[4ff	4AA	.	[4ff
.	8c	.	.	.	.	.
=37	=37	=37	=37	=37	=37	=37
4GG	8d	2b-	4ff]	4GG	2b-	4ff]
.	8B-	.	.	.	.	.
4C	4c	.	4ee	4C	.	4ee
2F	4.c	2a	8f	2F	2a	8f
.	.	.	8g	.	.	8g
.	.	.	8a	.	.	8a
.	8d	.	8b	.	.	8b
=38	=38	=38	=38	=38	=38	=38
2E	8e	4g	8cc	2E	4g	8cc
.	8f	.	8dd	.	.	8dd
.	8g	2cc	8ee	.	2cc	8ee
.	8e	.	8cc	.	.	8cc
4D	8a	.	4.ff	4D	.	4.ff
.	8f	.	.	.	.	.
4G	4g	4b	.	4G	4b	.
.	.	.	16ee	.	.	16ee
.	.	.	16dd	.	.	16dd
=39	=39	=39	=39	=39	=39	=39
4C	4g	4cc	8ee	4C	4cc	8ee
.	.	.	8cc	.	.	8cc
2c	4cc	4ee	4aa	2c	4ee	4aa
.	2dd	4ff	4dd	.	4ff	4dd
[4B-	.	4dd	4gg	[4B-	4dd	4gg
=40	=40	=40	=40	=40	=40	=40
4B-]	4g	4ee	4cc	4B-]	4ee	4cc
4A	4c	4aa	2ff	4A	4aa	2ff
4BB	4d	2gg	.	4BB	2gg	.
4C#	4e	.	[4ee	4C#	.	[4ee
=41	=41	=41	=41	=41	=41	=41
8D	4.A	2ff	4ee]	8D	2ff	4ee]
8E	.	.	.	8E	.	.
8F	.	.	2dd	8F	.	2dd
8D	8a	.	.	8D	.	.
8G	8b-	2ee	.	8G	2ee	.
8E	8g	.	.	8E	.	.
8A	4a	.	4cc#	8A	.	4cc#
8AA	.	.	.	8AA	.	.
=42	=42	=42	=42	=42	=42	=42
4D	4a	4dd	4dd	4.D	4dd	4dd
2.r	2.r	2.r	2.r	.	4r	2ff
.	.	.	.	8A	.	.
.	.	.	.	8B-	[2gg	.
.	.	.	.	8G	.	.
.	.	.	.	8c	.	4ee
.	.	.	.	8C	.	.
=43	=43	=43	=43	=43	=43	=43
1r	1r	1r	1r	8F	4gg]	2.aa
.	.	.	.	8G	.	.
.	.	.	.	8A	4ff	.
.	.	.	.	8F	.	.
.	.	.	.	4D	[2bb-	.
.	.	.	.	4E	.	4gg
=44	=44	=44	=44	=44	=44	=44
4F	4r	4r	4r	8F	4bb-]	4cc
.	.	.	.	8G	.	.
4r	4f	4aa	4ff	8A	4aa	2ff
.	.	.	.	8F	.	.
4C	4r	4r	4r	8c	4gg	.
.	.	.	.	8C	.	.
4r	4c	4ccc	4ee	8E	[4ccc	4ee
.	.	.	.	8C	.	.
=45	=45	=45	=45	=45	=45	=45
4G	4r	4r	4r	8G	4ccc]	4dd
.	.	.	.	8A	.	.
4r	4g	4bb-	4gg	8B-	4bb-	2gg
.	.	.	.	8G	.	.
4D	4r	4r	4r	8d	4aa	.
.	.	.	.	8D	.	.
4r	4d	4ddd	4ff	8F	[4ddd	4ff
.	.	.	.	8D	.	.
=46	=46	=46	=46	=46	=46	=46
4A	4r	4r	4r	8A	4ddd]	4ee
.	.	.	.	8B-	.	.
4r	4a	4ccc	[4aa	8c	4ccc	4.aa
.	.	.	.	8A	.	.
4d	4f	4.bb-	8aa]	4d	4.bb-	.
.	.	.	8dd	.	.	8dd
4e	4c	.	[4gg	4e	.	[4gg
.	.	8ccc	.	.	8ccc	.
=47	=47	=47	=47	=47	=47	=47
2f	2f	4.aa	8gg]	2f	4.aa	8gg]
.	.	.	8cc	.	.	8cc
.	.	.	2ff	.	.	2ff
.	.	8bb-	.	.	8bb-	.
2C	2r	4gg	.	2C	4gg	.
.	.	[4ccc	4ee	.	[4ccc	4ee
=48	=48	=48	=48	=48	=48	=48
2D	2f	4ccc]	2ff	2D	4ccc]	2ff
.	.	4bb	.	.	4bb	.
8C	2g	4ccc	8ee	8C	4ccc	8ee
8BB-	.	.	8dd	8BB-	.	8dd
8AA	.	4r	8cc	8AA	4r	8cc
8GG	.	.	8b-	8GG	.	8b-
=49	=49	=49	=49	=49	=49	=49
8FF	8a	2cc	8a	8FF	2cc	8a
8GG	8g	.	8b-	8GG	.	8b-
8AA	8f	.	2cc	8AA	.	2cc
8FF	8e	.	.	8FF	.	.
8BB-	8d	2dd	.	8BB-	2dd	.
8C	8e	.	.	8C	.	.
8D	8f	.	[4b-	8D	.	[4b-
8BB-	8d	.	.	8BB-	.	.
=50	=50	=50	=50	=50	=50	=50
8C	4g	4ee	4b-]	8C	4ee	4b-]
8c	.	.	.	8c	.	.
8d	8r	2ff	4a	8d	2ff	4a
8A	8cc	.	.	8A	.	.
8B-	8dd	.	2g	8B-	.	2g
8G	8b-	.	.	8G	.	.
8c	4cc	4ee	.	8c	4ee	.
8C	.	.	.	8C	.	.
=51	=51	=51	=51	=51	=51	=51
8F	4cc	4ff	4a	8F	4ff	4a
8E	.	.	.	8E	.	.
8F	8r	4r	2dd	8F	4r	2dd
8D	8f	.	.	8D	.	.
8E	8g	2g	.	8E	2g	.
8D	8f	.	.	8D	.	.
8E	8g	.	[4cc	8E	.	[4cc
8C	8e	.	.	8C	.	.
=52	=52	=52	=52	=52	=52	=52
8D	8f	2f	4cc]	8D	2f	4cc]
8C	8e	.	.	8C	.	.
8D	8f	.	2b-	8D	.	2b-
8BB-	8d	.	.	8BB-	.	.
4C	4g	4e	.	4C	4e	.
4F	8a	4cc	4a	4F	4cc	4a
.	8b-	.	.	.	.	.
=53	=53	=53	=53	=53	=53	=53
4c	4cc	4b-	4g	4c	4b-	4g
4F	4c	4a	4f	4F	4a	4f
2C	2c	4g	4e	2C	4g	4e
.	.	4r	[4cc	.	4r	[4cc
=54	=54	=54	=54	=54	=54	=54
2C	2c	2dd	4cc]	2C	2dd	4cc]
.	.	.	2b-	.	.	2b-
2C	2c	2cc	.	2C	2cc	.
.	.	.	[4a	.	.	[4a
=55	=55	=55	=55	=55	=55	=55
2C	2c	2b-	4a]	2C	2b-	4a]
.	.	.	2g	.	.	2g
2C	2c	[2a	.	2C	[2a	.
.	.	.	8f	.	.	8f
.	.	.	8e	.	.	8e
=56	=56	=56	=56	=56	=56	=56
4BB-	4f	4a]	8d	4BB-	4a]	8d
.	.	.	8e	.	.	8e
4BB	4d	4a-	2f	4BB	4a-	2f
4C	4G	2g	.	4C	2g	.
4CC	4c	.	4e	4CC	.	4e
=57	=57	=57	=57	=57	=57	=57
1FF	1A	1f	1f	1FF	1f	1f
==	==	==	==	==	==	==
*-	*-	*-	*-	*-	*-	*-
!!!RWG: This file only contains pitch and duration data.
!!!RWG: Transposing instruments are not transposed.
!!!RWG: Durations of rests and tied notes may be interpreted.
!!!RWG: Key is interpreted using the Humdrum key tool.
!!!SCA: 
!!!YOR: Chrysander Edition
!!!AGN: concerto grosso
!!!AFT: stage1
!!!ENC: F. Bennion
!!!END: 1997/04/15
!!!AST: baroque
!!!YEC: Copyright 1994, Center for Computer Assisted Research in the Humanities
!!!YEM: Rights to all derivative electronic formats reserved.
!!!YEM: Refer to licensing agreement for further details.
!!!YEN: United States of America
!!!EED: W.B. Hewlett
!!!KEY: 1855418431
!!!EMD: Converted from MuseData to Humdrum Aug 2, 1999, by Bret Aarden using muse2kern.
!!!VTS: 3085846561
